X: 9
T: No_18_Song_of_Contest_Dance.krn
N: Derived from No_18_Song_of_Contest_Dance.krn
%%abc-version 2.0
%%abcx-abcm2ps-target-version 5.9.1 (29 Sep 2008)
%%abc-creator hum2abc beta
%%abcx-conversion-date 2019/03/15 08:27:55
%%humdrum-veritas 835017703
%%humdrum-veritas-data 2426913792
%%linebreak <none>
%%barnumbers 0
L: 1/8
M: 3/4
K: Bb clef=bass
[K:clef=bass][M:3/4]F4DD/ z/ | 
FF DD D/ z/ D | 
DD (D(B,) (B,)F,) | 
F4DD/ z/ | 
FF DD D/ z/ D | 
[M:5/8]DDDD z | 
[M:2/4]FF FD/ z/ | 
DD DF, | 
(A,G,) (G,F,) | 
[M:3/4]F,G, G,D, D,D, | 
D,4z2 | 
F,2F,D, D,/ z/ F, | 
[M:2/4]F,D, D,D, | 
D,4 | 
D,/D,/ zz2 | 
F3D | 
DD/D/ DG,/ z/ | 
(C/B,/)B,- B,F, | 
[M:3/4]F,G, G,D, D,D, | 
D,4D, z | 
F,2F,D, D,/ z/ F, | 
[M:2/4]F,D, D,D, | 
[M:3/4]D,4D, z | 
[M:2/4]FF FD/ z/ | 
DD DF, | 
(A,G,) (G,F,) | 
[M:3/4]F,G, G,D, D,D, | 
D,4z2 | 
F,2F,D, D,/ z/ F, | 
[M:2/4]F,D, D,D, | 
D,4 | 
D, zz2 |]  



